icons/git-compare-16.svg

<svg xmlns="http://www.w3.org/2000/svg" width="16" height="16" viewBox="0 0 16 16"><path d="M9.573.677A.25.25 0 0110 .854V2.5h1A2.5 2.5 0 0113.5 5v5.628a2.251 2.251 0 11-1.5 0V5a1 1 0 00-1-1h-1v1.646a.25.25 0 01-.427.177L7.177 3.427a.25.25 0 010-.354zM6 12v-1.646a.25.25 0 01.427-.177l2.396 2.396a.25.25 0 010 .354l-2.396 2.396A.25.25 0 016 15.146V13.5H5A2.5 2.5 0 012.5 11V5.372a2.25 2.25 0 111.5 0V11a1 1 0 001 1zM4 3.25a.75.75 0 10-1.5 0 .75.75 0 001.5 0zM12.75 12a.75.75 0 100 1.5.75.75 0 000-1.5z"/></svg>

<svg xmlns="http://www.w3.org/2000/svg" width="16" height="16" viewBox="0 0 16 16">
  <defs/>
  <path d="M9.573,0.677 C9.645,0.605 9.752,0.584 9.846,0.623 C9.939,0.661 10,0.753 10,0.854 L10,2.5 L11,2.5 C12.381,2.5 13.5,3.619 13.5,5 L13.5,10.628 C14.534,10.993 15.154,12.05 14.969,13.131 C14.783,14.211 13.846,15.001 12.75,15.001 C11.654,15.001 10.717,14.211 10.531,13.131 C10.346,12.05 10.966,10.993 12,10.628 L12,5 C12,4.448 11.552,4 11,4 L10,4 L10,5.646 C10,5.747 9.939,5.839 9.846,5.877 C9.752,5.916 9.645,5.895 9.573,5.823 L7.177,3.427 C7.13,3.38 7.104,3.316 7.104,3.25 C7.104,3.184 7.13,3.12 7.177,3.073 Z M6,12 L6,10.354 C6,10.253 6.061,10.161 6.154,10.123 C6.248,10.084 6.355,10.105 6.427,10.177 L8.823,12.573 C8.87,12.62 8.896,12.684 8.896,12.75 C8.896,12.816 8.87,12.88 8.823,12.927 L6.427,15.323 C6.355,15.395 6.248,15.416 6.154,15.377 C6.061,15.339 6,15.247 6,15.146 L6,13.5 L5,13.5 C3.619,13.5 2.5,12.381 2.5,11 L2.5,5.372 C1.467,5.007 0.847,3.95 1.032,2.87 C1.218,1.79 2.154,1.001 3.25,1.001 C4.346,1.001 5.282,1.79 5.468,2.87 C5.653,3.95 5.033,5.007 4,5.372 L4,11 C4,11.552 4.448,12 5,12 Z M4,3.25 C4,2.836 3.664,2.5 3.25,2.5 C2.836,2.5 2.5,2.836 2.5,3.25 C2.5,3.664 2.836,4 3.25,4 C3.664,4 4,3.664 4,3.25 Z M12.75,12 C12.336,12 12,12.336 12,12.75 C12,13.164 12.336,13.5 12.75,13.5 C13.164,13.5 13.5,13.164 13.5,12.75 C13.5,12.336 13.164,12 12.75,12 Z"/>
</svg>
